X:216
T:Banks of Lough Gamhna, The
R:jig
H:See also #10
D:Light Through the Leaves
Z:id:hn-jig-216
M:6/8
K:Ador
ABA AGE|EDE ~G3|~A3 AGE|cde edc|
~A3 AGE|EDE ~G3|cde ged|BAG ~A3:|
cde g2g|~g2a ged|cde g2e|~g3 ~a3|
cde g2g|~g2a ged|cde ged|BAG ~A3|
cde g2g|gea ged|cde ~g3|~g2e ~a3|
cde ~g3|gea ged|cde g/f/ed|BAG ~A3||

